img/svg/icon-font/plus.svg

<svg width="22" height="22" viewBox="0 0 22 22" fill="none" xmlns="http://www.w3.org/2000/svg">
<path fill-rule="evenodd" clip-rule="evenodd" d="M2.76561 16.9816C2.35959 17.2274 1.83121 17.0977 1.58531 16.6917C0.548187 14.9796 0 13.0115 0 11C0 8.06184 1.14421 5.29942 3.22182 3.22182C5.29942 1.14421 8.06184 0 11 0C13.9382 0 16.7006 1.14421 18.7782 3.22182C20.8558 5.29942 22 8.06184 22 11C22 13.9382 20.8558 16.7006 18.7782 18.7782C16.7006 20.8558 13.9382 22 11 22C8.82874 22 6.71706 21.3555 4.8934 20.1364C4.49896 19.8725 4.39288 19.3388 4.65674 18.9444C4.92043 18.5497 5.45418 18.4437 5.84879 18.7075C7.38878 19.7371 9.16997 20.2812 11 20.2812C16.1176 20.2812 20.2812 16.1176 20.2812 11C20.2812 5.88235 16.1176 1.71875 11 1.71875C5.88235 1.71875 1.71875 5.88235 1.71875 11C1.71875 12.6976 2.181 14.3578 3.05531 15.8013C3.30138 16.2071 3.17163 16.7355 2.76561 16.9816ZM10.188 11.8586V15.7266C10.188 16.2012 10.5727 16.5859 11.0473 16.5859C11.522 16.5859 11.9067 16.2012 11.9067 15.7266V11.8586H15.7739C16.2485 11.8586 16.6333 11.4739 16.6333 10.9992C16.6333 10.5246 16.2485 10.1399 15.7739 10.1399H11.9067V6.23047C11.9067 5.75584 11.522 5.37109 11.0473 5.37109C10.5727 5.37109 10.188 5.75584 10.188 6.23047V10.1399H6.32076C5.84613 10.1399 5.46139 10.5246 5.46139 10.9992C5.46139 11.4739 5.84613 11.8586 6.32076 11.8586H10.188Z" fill="#4C51CB"/>
</svg>

<svg width="22" height="22" fill="none" xmlns="http://www.w3.org/2000/svg"><path fill-rule="evenodd" clip-rule="evenodd" d="M2.766 16.982a.86.86 0 01-1.18-.29A10.982 10.982 0 010 11c0-2.938 1.144-5.7 3.222-7.778A10.928 10.928 0 0111 0c2.938 0 5.7 1.144 7.778 3.222A10.928 10.928 0 0122 11c0 2.938-1.144 5.7-3.222 7.778A10.928 10.928 0 0111 22c-2.171 0-4.283-.645-6.107-1.864a.86.86 0 01.956-1.428A9.243 9.243 0 0011 20.28c5.118 0 9.281-4.163 9.281-9.281S16.118 1.719 11 1.719 1.719 5.882 1.719 11c0 1.698.462 3.358 1.336 4.801a.86.86 0 01-.29 1.18zm7.422-5.123v3.868a.86.86 0 101.719 0v-3.868h3.867a.86.86 0 100-1.72h-3.867V6.23a.86.86 0 10-1.719 0v3.91H6.321a.86.86 0 100 1.719h3.867z" fill="#4C51CB"/></svg>
